Website/Theme/src/assets/images/layered-waves.svg

<?xml version="1.0" encoding="utf-8"?>
<!-- Generator: Adobe Illustrator 23.0.1, SVG Export Plug-In . SVG Version: 6.00 Build 0)  -->
<svg version="1.1" id="visual" xmlns="http://www.w3.org/2000/svg" xmlns:xlink="http://www.w3.org/1999/xlink" x="0px" y="0px"
	 viewBox="0 0 960 87.43" style="enable-background:new 0 0 960 87.43;" xml:space="preserve">
<style type="text/css">
	.st0{fill:#1A51A4;}
	.st1{fill:#1B69B6;}
	.st2{fill:#2981C7;}
	.st3{fill:#3F99D6;}
	.st4{fill:#59B1E3;}
</style>
<path class="st0" d="M0,68l10,2.7c10,2.6,30,8,50,11.1c20,3.2,40,4.2,60,4.9c20,0.6,40,1,60,0.5s40-1.9,60-8c20-6.2,40-17.2,60-20.4
	c20-3.1,40,1.5,60,5.4c20,3.8,40,6.8,60,9.1c20,2.4,40,4,60-1s40-16.6,60-16.8s40,11.2,60,18.3c20,7.2,40,10.2,60,7.9
	c20-2.4,40-10,60-12s40,1.6,60-1c20-2.7,40-11.7,60-12.2s40,7.5,60,6.7c20-0.9,40-10.5,50-15.4l10-4.8V0h-10c-10,0-30,0-50,0
	s-40,0-60,0s-40,0-60,0s-40,0-60,0s-40,0-60,0s-40,0-60,0s-40,0-60,0s-40,0-60,0s-40,0-60,0s-40,0-60,0s-40,0-60,0s-40,0-60,0
	s-40,0-60,0s-40,0-60,0S80,0,60,0S20,0,10,0H0V68z"/>
<path class="st1" d="M0,69l10-3.2c10-3.1,30-9.5,50-9s40,7.9,60,11.9s40,4.6,60-0.5c20-5.2,40-16.2,60-22.4c20-6.1,40-7.5,60-7.5
	s40,1.4,60,5.4s40,10.6,60,10.5c20-0.2,40-7.2,60-8.9c20-1.6,40,2,60,2.4c20,0.3,40-2.7,60-1.9c20,0.9,40,5.5,60,6.5s40-1.6,60,1.5
	c20,3.2,40,12.2,60,16.5c20,4.4,40,4,60,1.2s40-8.2,60-10.2s40-0.6,50,0l10,0.7V0h-10c-10,0-30,0-50,0s-40,0-60,0s-40,0-60,0
	s-40,0-60,0s-40,0-60,0s-40,0-60,0s-40,0-60,0s-40,0-60,0s-40,0-60,0s-40,0-60,0s-40,0-60,0s-40,0-60,0s-40,0-60,0s-40,0-60,0
	S80,0,60,0S20,0,10,0H0V69z"/>
<path class="st2" d="M0,61l10-3.8c10-3.9,30-11.5,50-11.7s40,7.2,60,6.5s40-9.3,60-14.2c20-4.8,40-5.8,60-6c20-0.1,40,0.5,60,2.5
	s40,5.4,60,4.4s40-6.4,60-7.9s40,0.9,60,5.9s40,12.6,60,11.5c20-1.2,40-11.2,60-11.5c20-0.4,40,9,60,14s40,5.6,60,5.3s40-1.7,60-2.5
	s40-1.2,60-0.7s40,1.9,60,1.2s40-3.3,50-4.7l10-1.3V0h-10c-10,0-30,0-50,0s-40,0-60,0s-40,0-60,0s-40,0-60,0s-40,0-60,0s-40,0-60,0
	s-40,0-60,0s-40,0-60,0s-40,0-60,0s-40,0-60,0s-40,0-60,0s-40,0-60,0s-40,0-60,0s-40,0-60,0S80,0,60,0S20,0,10,0H0V61z"/>
<path class="st3" d="M0,18l10,1.7c10,1.6,30,5,50,5.5s40-1.9,60-0.9s40,5.4,60,8.5c20,3.2,40,5.2,60,5c20-0.1,40-2.5,60-6.1
	c20-3.7,40-8.7,60-8.5c20,0.1,40,5.5,60,8.8s40,4.7,60,3.5s40-4.8,60-7.2c20-2.3,40-3.3,60-3.8s40-0.5,60-0.5s40,0,60-0.3
	c20-0.4,40-1,60,2.5s40,11.1,60,14.5c20,3.3,40,2.3,60,0.8s40-3.5,50-4.5l10-1V0h-10c-10,0-30,0-50,0s-40,0-60,0s-40,0-60,0
	s-40,0-60,0s-40,0-60,0s-40,0-60,0s-40,0-60,0s-40,0-60,0s-40,0-60,0s-40,0-60,0s-40,0-60,0s-40,0-60,0s-40,0-60,0s-40,0-60,0
	S80,0,60,0S20,0,10,0H0V18z"/>
<path class="st4" d="M0,22l10-1.2c10-1.1,30-3.5,50-5s40-2.1,60-2.1s40,0.6,60,1c20,0.3,40,0.3,60-0.2s40-1.5,60,0.5s40,7,60,7.2
	c20,0.1,40-4.5,60-5s40,3.1,60,3.8s40-1.7,60-1.2s40,3.9,60,4.2s40-2.3,60-4.3s40-3.4,60-1.9s40,5.9,60,5.4s40-5.9,60-7.5
	c20-1.7,40,0.3,60,0.6c20,0.4,40-1,50-1.6l10-0.7V0h-10c-10,0-30,0-50,0s-40,0-60,0s-40,0-60,0s-40,0-60,0s-40,0-60,0s-40,0-60,0
	s-40,0-60,0s-40,0-60,0s-40,0-60,0s-40,0-60,0s-40,0-60,0s-40,0-60,0s-40,0-60,0s-40,0-60,0S80,0,60,0S20,0,10,0H0V22z"/>
</svg>

<svg id="visual" viewBox="0 0 960 300" width="960" height="300" xmlns="http://www.w3.org/2000/svg" xmlns:xlink="http://www.w3.org/1999/xlink" version="1.1"><path d="M0 68L10 70.7C20 73.3 40 78.7 60 81.8C80 85 100 86 120 86.7C140 87.3 160 87.7 180 87.2C200 86.7 220 85.3 240 79.2C260 73 280 62 300 58.8C320 55.7 340 60.3 360 64.2C380 68 400 71 420 73.3C440 75.7 460 77.3 480 72.3C500 67.3 520 55.7 540 55.5C560 55.3 580 66.7 600 73.8C620 81 640 84 660 81.7C680 79.3 700 71.7 720 69.7C740 67.7 760 71.3 780 68.7C800 66 820 57 840 56.5C860 56 880 64 900 63.2C920 62.3 940 52.7 950 47.8L960 43L960 0L950 0C940 0 920 0 900 0C880 0 860 0 840 0C820 0 800 0 780 0C760 0 740 0 720 0C700 0 680 0 660 0C640 0 620 0 600 0C580 0 560 0 540 0C520 0 500 0 480 0C460 0 440 0 420 0C400 0 380 0 360 0C340 0 320 0 300 0C280 0 260 0 240 0C220 0 200 0 180 0C160 0 140 0 120 0C100 0 80 0 60 0C40 0 20 0 10 0L0 0Z" fill="#1a51a4"></path><path d="M0 69L10 65.8C20 62.7 40 56.3 60 56.8C80 57.3 100 64.7 120 68.7C140 72.7 160 73.3 180 68.2C200 63 220 52 240 45.8C260 39.7 280 38.3 300 38.3C320 38.3 340 39.7 360 43.7C380 47.7 400 54.3 420 54.2C440 54 460 47 480 45.3C500 43.7 520 47.3 540 47.7C560 48 580 45 600 45.8C620 46.7 640 51.3 660 52.3C680 53.3 700 50.7 720 53.8C740 57 760 66 780 70.3C800 74.7 820 74.3 840 71.5C860 68.7 880 63.3 900 61.3C920 59.3 940 60.7 950 61.3L960 62L960 0L950 0C940 0 920 0 900 0C880 0 860 0 840 0C820 0 800 0 780 0C760 0 740 0 720 0C700 0 680 0 660 0C640 0 620 0 600 0C580 0 560 0 540 0C520 0 500 0 480 0C460 0 440 0 420 0C400 0 380 0 360 0C340 0 320 0 300 0C280 0 260 0 240 0C220 0 200 0 180 0C160 0 140 0 120 0C100 0 80 0 60 0C40 0 20 0 10 0L0 0Z" fill="#1b69b6"></path><path d="M0 61L10 57.2C20 53.3 40 45.7 60 45.5C80 45.3 100 52.7 120 52C140 51.3 160 42.7 180 37.8C200 33 220 32 240 31.8C260 31.7 280 32.3 300 34.3C320 36.3 340 39.7 360 38.7C380 37.7 400 32.3 420 30.8C440 29.3 460 31.7 480 36.7C500 41.7 520 49.3 540 48.2C560 47 580 37 600 36.7C620 36.3 640 45.7 660 50.7C680 55.7 700 56.3 720 56C740 55.7 760 54.3 780 53.5C800 52.7 820 52.3 840 52.8C860 53.3 880 54.7 900 54C920 53.3 940 50.7 950 49.3L960 48L960 0L950 0C940 0 920 0 900 0C880 0 860 0 840 0C820 0 800 0 780 0C760 0 740 0 720 0C700 0 680 0 660 0C640 0 620 0 600 0C580 0 560 0 540 0C520 0 500 0 480 0C460 0 440 0 420 0C400 0 380 0 360 0C340 0 320 0 300 0C280 0 260 0 240 0C220 0 200 0 180 0C160 0 140 0 120 0C100 0 80 0 60 0C40 0 20 0 10 0L0 0Z" fill="#2981c7"></path><path d="M0 18L10 19.7C20 21.3 40 24.7 60 25.2C80 25.7 100 23.3 120 24.3C140 25.3 160 29.7 180 32.8C200 36 220 38 240 37.8C260 37.7 280 35.3 300 31.7C320 28 340 23 360 23.2C380 23.3 400 28.7 420 32C440 35.3 460 36.7 480 35.5C500 34.3 520 30.7 540 28.3C560 26 580 25 600 24.5C620 24 640 24 660 24C680 24 700 24 720 23.7C740 23.3 760 22.7 780 26.2C800 29.7 820 37.3 840 40.7C860 44 880 43 900 41.5C920 40 940 38 950 37L960 36L960 0L950 0C940 0 920 0 900 0C880 0 860 0 840 0C820 0 800 0 780 0C760 0 740 0 720 0C700 0 680 0 660 0C640 0 620 0 600 0C580 0 560 0 540 0C520 0 500 0 480 0C460 0 440 0 420 0C400 0 380 0 360 0C340 0 320 0 300 0C280 0 260 0 240 0C220 0 200 0 180 0C160 0 140 0 120 0C100 0 80 0 60 0C40 0 20 0 10 0L0 0Z" fill="#3f99d6"></path><path d="M0 22L10 20.8C20 19.7 40 17.3 60 15.8C80 14.3 100 13.7 120 13.7C140 13.7 160 14.3 180 14.7C200 15 220 15 240 14.5C260 14 280 13 300 15C320 17 340 22 360 22.2C380 22.3 400 17.7 420 17.2C440 16.7 460 20.3 480 21C500 21.7 520 19.3 540 19.8C560 20.3 580 23.7 600 24C620 24.3 640 21.7 660 19.7C680 17.7 700 16.3 720 17.8C740 19.3 760 23.7 780 23.2C800 22.7 820 17.3 840 15.7C860 14 880 16 900 16.3C920 16.7 940 15.3 950 14.7L960 14L960 0L950 0C940 0 920 0 900 0C880 0 860 0 840 0C820 0 800 0 780 0C760 0 740 0 720 0C700 0 680 0 660 0C640 0 620 0 600 0C580 0 560 0 540 0C520 0 500 0 480 0C460 0 440 0 420 0C400 0 380 0 360 0C340 0 320 0 300 0C280 0 260 0 240 0C220 0 200 0 180 0C160 0 140 0 120 0C100 0 80 0 60 0C40 0 20 0 10 0L0 0Z" fill="#59b1e3"></path></svg>
